favicon.svg

<svg xmlns="http://www.w3.org/2000/svg" viewBox="0 0 74 78"><path d="M28.49 2.75c8.07-1.04 16.84-1.33 24.26 2.55a38.18 38.18 0 0 1 18 18.86c2.68 6.25 2.1 13.24 2.03 19.88-.01 7.79-4.27 14.82-9.29 20.47-7.41 7.4-17.95 11.98-28.51 11.26-15.06-.8-29.21-11.71-33.12-26.4-1.03-5.39-.77-10.92-.58-16.36.21-6.74 3.43-12.99 7.69-18.06 5.05-5.91 11.87-10.53 19.52-12.2m-1.12 2.6c-9.42 2.21-16.68 9.61-21.3 17.8-3.49 5.98-3.82 13.15-3.37 19.9.42 5.82 3.11 11.17 6.23 15.99 3.34 5.15 8.87 8.31 14.32 10.8 11.68 5.05 25.75 2.92 35.83-4.69 4.93-3.3 7.87-8.66 10.2-13.96 2.49-5.69 2.44-12.09 1.85-18.16-.68-6.66-4.3-12.59-8.62-17.54-4.32-5.05-10.13-9.02-16.71-10.33a51.2 51.2 0 0 0-18.43.19Z"/><path d="M24.76 16.84c5.65-3.1 12.52-4.35 18.75-2.34 6.67 1.62 11.94 6.52 15.55 12.17-9.4.69-18.69-2.19-28.08-.9a90.61 90.61 0 0 1-16.04.9c2.59-3.86 5.71-7.52 9.82-9.83m1.47 1.32c-2.84 1.5-6.44 3.25-6.57 6.93 5.8.21 11.54-.89 17.34-.81 5.79-.08 11.54 1.03 17.34.81-.36-1.34-.43-2.92-1.7-3.77a24.36 24.36 0 0 0-26.41-3.16ZM13.16 43.19c2.71.05 5.62.06 7.93 1.7 6.05 3.78 11.44 10.62 9.82 18.18-9.82-.84-17.98-10.05-17.75-19.88m3.86 2.4a4.7 4.7 0 0 0-.56 5.78c2.8 4.93 7.78 9.74 13.91 8.98-.52-2.46-1.14-4.97-2.63-7.05-2.55-3.64-5.98-7.41-10.72-7.71ZM52.91 44.89c2.31-1.64 5.22-1.66 7.93-1.7.23 9.83-7.94 19.03-17.75 19.88-1.62-7.56 3.77-14.4 9.82-18.18m-.7 2.27c-4.4 3.08-7.83 7.78-8.58 13.19 6.14.78 11.1-4.06 13.91-8.98a4.7 4.7 0 0 0-.56-5.78c-1.64.31-3.39.53-4.77 1.57Z"/><g fill="#fff"><path d="M27.37 5.35a51.2 51.2 0 0 1 18.43-.19c6.58 1.31 12.39 5.28 16.71 10.33 4.32 4.95 7.94 10.88 8.62 17.54.59 6.07.64 12.47-1.85 18.16-2.33 5.3-5.27 10.66-10.2 13.96-10.08 7.61-24.15 9.74-35.83 4.69-5.45-2.49-10.98-5.65-14.32-10.8-3.12-4.82-5.81-10.17-6.23-15.99-.45-6.75-.12-13.92 3.37-19.9 4.62-8.19 11.88-15.59 21.3-17.8m-2.61 11.49c-4.11 2.31-7.23 5.97-9.82 9.83 5.36.21 10.73-.16 16.04-.9 9.39-1.29 18.68 1.59 28.08.9-3.61-5.65-8.88-10.55-15.55-12.17-6.23-2.01-13.1-.76-18.75 2.34m8.83 13.85c-2.51.82-4.93 2.78-5.27 5.54-.53 3.39-.34 7.53 2.55 9.86 2.9 2.26 7.07 2.21 10.43 1.11 4.82-1.94 5.41-8.21 3.93-12.54-2.04-4.13-7.53-5.34-11.64-3.97m-20.43 12.5c-.23 9.83 7.93 19.04 17.75 19.88 1.62-7.56-3.77-14.4-9.82-18.18-2.31-1.64-5.22-1.65-7.93-1.7m39.75 1.7c-6.05 3.78-11.44 10.62-9.82 18.18 9.81-.85 17.98-10.05 17.75-19.88-2.71.04-5.62.06-7.93 1.7Z"/><path d="M34.3 32.94c3.48-1.24 7.87.13 9.42 3.64 1.97 3.59-1.28 7.41-4.32 9.08-3.55 2.08-7.4-1.24-9.06-4.26-1.96-3.24.72-7.37 3.96-8.46Z"/></g><path fill="#28aCF3" d="M33.59 30.69c4.11-1.37 9.6-.16 11.64 3.97 1.48 4.33.89 10.6-3.93 12.54-3.36 1.1-7.53 1.15-10.43-1.11-2.89-2.33-3.08-6.47-2.55-9.86.34-2.76 2.76-4.72 5.27-5.54m.71 2.25c-3.24 1.09-5.92 5.22-3.96 8.46 1.66 3.02 5.51 6.34 9.06 4.26 3.04-1.67 6.29-5.49 4.32-9.08-1.55-3.51-5.94-4.88-9.42-3.64Z"/></svg>

<?xml version="1.0" encoding="UTF-8" ?>
<!DOCTYPE svg PUBLIC "-//W3C//DTD SVG 1.1//EN" "http://www.w3.org/Graphics/SVG/1.1/DTD/svg11.dtd">
<svg width="74pt" height="78pt" viewBox="0 0 74 78" version="1.1" xmlns="http://www.w3.org/2000/svg">
<g id="#000000ff">
<path fill="#000000" opacity="1.00" d=" M 28.49 2.75 C 36.56 1.71 45.33 1.42 52.75 5.30 C 60.68 9.24 67.25 16.00 70.75 24.16 C 73.43 30.41 72.85 37.40 72.78 44.04 C 72.77 51.83 68.51 58.86 63.49 64.51 C 56.08 71.91 45.54 76.49 34.98 75.77 C 19.92 74.97 5.77 64.06 1.86 49.37 C 0.83 43.98 1.09 38.45 1.28 33.01 C 1.49 26.27 4.71 20.02 8.97 14.95 C 14.02 9.04 20.84 4.42 28.49 2.75 M 27.37 5.35 C 17.95 7.56 10.69 14.96 6.07 23.15 C 2.58 29.13 2.25 36.30 2.70 43.05 C 3.12 48.87 5.81 54.22 8.93 59.04 C 12.27 64.19 17.80 67.35 23.25 69.84 C 34.93 74.89 49.00 72.76 59.08 65.15 C 64.01 61.85 66.95 56.49 69.28 51.19 C 71.77 45.50 71.72 39.10 71.13 33.03 C 70.45 26.37 66.83 20.44 62.51 15.49 C 58.19 10.44 52.38 6.47 45.80 5.16 C 39.73 4.16 33.41 4.12 27.37 5.35 Z" />
<path fill="#000000" opacity="1.00" d=" M 24.76 16.84 C 30.41 13.74 37.28 12.49 43.51 14.50 C 50.18 16.12 55.45 21.02 59.06 26.67 C 49.66 27.36 40.37 24.48 30.98 25.77 C 25.67 26.51 20.30 26.88 14.94 26.67 C 17.53 22.81 20.65 19.15 24.76 16.84 M 26.23 18.16 C 23.39 19.66 19.79 21.41 19.66 25.09 C 25.46 25.30 31.20 24.20 37.00 24.28 C 42.79 24.20 48.54 25.31 54.34 25.09 C 53.98 23.75 53.91 22.17 52.64 21.32 C 45.49 15.17 34.63 13.85 26.23 18.16 Z" />
<path fill="#000000" opacity="1.00" d=" M 13.16 43.19 C 15.87 43.24 18.78 43.25 21.09 44.89 C 27.14 48.67 32.53 55.51 30.91 63.07 C 21.09 62.23 12.93 53.02 13.16 43.19 M 17.02 45.59 C 15.56 47.20 15.25 49.52 16.46 51.37 C 19.26 56.30 24.24 61.11 30.37 60.35 C 29.85 57.89 29.23 55.38 27.74 53.30 C 25.19 49.66 21.76 45.89 17.02 45.59 Z" />
<path fill="#000000" opacity="1.00" d=" M 52.91 44.89 C 55.22 43.25 58.13 43.23 60.84 43.19 C 61.07 53.02 52.90 62.22 43.09 63.07 C 41.47 55.51 46.86 48.67 52.91 44.89 M 52.21 47.16 C 47.81 50.24 44.38 54.94 43.63 60.35 C 49.77 61.13 54.73 56.29 57.54 51.37 C 58.75 49.52 58.44 47.20 56.98 45.59 C 55.34 45.90 53.59 46.12 52.21 47.16 Z" />
</g>
<g id="#ffffffff">
<path fill="#ffffff" opacity="1.00" d=" M 27.37 5.35 C 33.41 4.12 39.73 4.16 45.80 5.16 C 52.38 6.47 58.19 10.44 62.51 15.49 C 66.83 20.44 70.45 26.37 71.13 33.03 C 71.72 39.10 71.77 45.50 69.28 51.19 C 66.95 56.49 64.01 61.85 59.08 65.15 C 49.00 72.76 34.93 74.89 23.25 69.84 C 17.80 67.35 12.27 64.19 8.93 59.04 C 5.81 54.22 3.12 48.87 2.70 43.05 C 2.25 36.30 2.58 29.13 6.07 23.15 C 10.69 14.96 17.95 7.56 27.37 5.35 M 24.76 16.84 C 20.65 19.15 17.53 22.81 14.94 26.67 C 20.30 26.88 25.67 26.51 30.98 25.77 C 40.37 24.48 49.66 27.36 59.06 26.67 C 55.45 21.02 50.18 16.12 43.51 14.50 C 37.28 12.49 30.41 13.74 24.76 16.84 M 33.59 30.69 C 31.08 31.51 28.66 33.47 28.32 36.23 C 27.79 39.62 27.98 43.76 30.87 46.09 C 33.77 48.35 37.94 48.30 41.30 47.20 C 46.12 45.26 46.71 38.99 45.23 34.66 C 43.19 30.53 37.70 29.32 33.59 30.69 M 13.16 43.19 C 12.93 53.02 21.09 62.23 30.91 63.07 C 32.53 55.51 27.14 48.67 21.09 44.89 C 18.78 43.25 15.87 43.24 13.16 43.19 M 52.91 44.89 C 46.86 48.67 41.47 55.51 43.09 63.07 C 52.90 62.22 61.07 53.02 60.84 43.19 C 58.13 43.23 55.22 43.25 52.91 44.89 Z" />
<path fill="#ffffff" opacity="1.00" d=" M 34.30 32.94 C 37.78 31.70 42.17 33.07 43.72 36.58 C 45.69 40.17 42.44 43.99 39.40 45.66 C 35.85 47.74 32.00 44.42 30.34 41.40 C 28.38 38.16 31.06 34.03 34.30 32.94 Z" />
</g>
<g id="#b6edffff">
<path fill="#b6edff" opacity="1.00" d=" M 33.59 30.69 C 37.70 29.32 43.19 30.53 45.23 34.66 C 46.71 38.99 46.12 45.26 41.30 47.20 C 37.94 48.30 33.77 48.35 30.87 46.09 C 27.98 43.76 27.79 39.62 28.32 36.23 C 28.66 33.47 31.08 31.51 33.59 30.69 M 34.30 32.94 C 31.06 34.03 28.38 38.16 30.34 41.40 C 32.00 44.42 35.85 47.74 39.40 45.66 C 42.44 43.99 45.69 40.17 43.72 36.58 C 42.17 33.07 37.78 31.70 34.30 32.94 Z" />
</g>
</svg>
